X: 83
T: Lifligsang
B:[[Notböcker/Melodier til gamle danske Almuedanse for Violin solo]]
O:Danmark
Z:Søren Bak Vestergaard
M: 3/8
L: 1/16
K: D
(!upbow!Ad)|fefa (3(gec)|d2FAFA|G2EcEc|
d2FAFA|fefa (3(gec)|d2FAFA|G2EcEc|d2 z2:|\
|:(!upbow!df)|a4 (3(baf)|g2 (3(Ace) (3(Ace)|g4 (3(age)|f2 (3(Adf) (3(Adf)|\
a4 (3(baf)|g2 (3(Ace) (3(Ace)|fefa (3(gec)|d2 z2:|

